X:1
T:Aria
T:Aria
T:Warum betrübst du dich
T:by Unknown BWV 516 
C:by Unknown BWV 516
%%score 1 { ( 2 3 5 ) | 4 }
L:1/8
Q:1/4=82
M:4/4
K:Ab
V:1 treble nm="Stimme" snm="St."
V:2 treble nm="Pipe Organ"
V:3 treble 
V:5 treble 
V:4 bass 
V:1
 f2 | c2 d2 d2 c B | A6 A2 | G A G A B c/ d/ c B | A2 G2 !breath!F2 A2 | B2 c2 d e/ f/ d c | %6
 B6 e2 | A G A d c2 B A | A6 :| c2 | B2 c/ B/ A B2 e2 | d6 =A2 | B2 e f/ _g/ f2 e d | %13
 c4 B2[Q:1/4=82] d2[Q:1/4=76][Q:1/4=68] | c2 f2 =e3 f | g6 B2 | A G F =E F3 G | %17
[Q:1/4=76] G4[Q:1/4=58] F2[Q:1/4=68] |] %18
V:2
 f2 | c2 d2 (d2 c)B | !fermata!A6 A2 | GA GA Bc/d/ cB | A2 G2 !fermata!F2 A2 | B2 c2 (de/f/) (dc) | %6
w: Wa-|rum be- trübst _ du|dich und|beu- * gest _ dich _ _ zur _|Er- * den, mein|sehr ge- plag- * * ter _|
w: Du|sorgst, wie will _ es|doch noch|end- * lich _ mit _ _ dir _|wer- * den, und|fäh- rest ü- * * ber _|
 !fermata!B6 e2 | AG Ad c2 BA | A6 :| c2 | B2 (c/B/A) B2 e2 | !fermata!d6 =A2 | %12
w: Geist, mein|ab- * ge- * mat- ter _|Sinn?||||
w: Welt und|ü- * ber _ Him- mel _|hin.|Wirst|du dich _ _ nicht recht|fest in|
 B2 (ef/_g/) f2 (ed) | c4 !fermata!B2 d2 | c2 f2 =e3 f | !fermata!g6 B2 | AG F=E F3 G | G4 F2 |] %18
w: ||||||
w: Got- tes _ _ Wil- len _|grün- den, kannst|du in E- wig-|keit nicht|wah- * re _ Ru- he|fin- den.|
V:3
 [Ac]2 | x2 BA [GB]3 [=EG] | [CF]6 [CF]2 | F4 [DF]2 G=E | [CF]2 [B,=E]2 [A,C]2 [CF]2 | %5
 FG [E=A]2 [FB]2 B_A | G6 cB | F2 F2 [EA]2 [DG]2 | [CE]6 :| [EA]2 | G2 AF G2 =A/G/A | [FB]6 E2 | %12
 D2 =A2 [FB]2 cB | [CB]2 =A2 [DF]2 [FB]2 | [=EG]2 [Fc]2 [GB]2 [Ac]2 | [Gc]6 =E2 | %16
 [CF]2 [G,B,]2 A,B,/C/ D2 | C3 B, A,2 |] %18
V:4
 F,G, | A,2 B,2 =E,3 C, | !fermata!F,6 F,2 | B,,C, D,2 G,,2 (=E,C,) | F,2 C,2 !fermata!F,,2 F,_E, | %5
 D,2 C,2 B,,C, D,2 | !fermata!E,6 C,2 | F,2 D,2 E,D, E,2 | A,6 :| A,,2 | E,2 E,2 (E,D,) C,2 | %11
 !fermata!B,,6 F,2 | _G,2 C,2 D,2 E,2 | (F,2 F,,2) !fermata!B,,2 B,2 | B,2 A,2 G,2 F,2 | %15
 !fermata!=E,6 C,2 | F,2 C,2 D,2 B,,2 | C,4 F,,2 |] %18
V:5
 x2 | F2 F2 x4 | x8 | DC B,2 x2[I:staff +1] G,2 | x8 |[I:staff -1] D2 x4 F2 | x6 G2 | x8 | x6 :| %9
 x2 | E4 E4 | x8 | x2[I:staff +1] C2 x2[I:staff -1] _G2 | x2 FE x4 | x8 | x8 | x4[I:staff +1] F,4 | %17
 F,2 =E,2 F,2 |] %18

